svg/s/GU.svg

<svg width="16" height="12" viewBox="0 0 16 12" fill="none" xmlns="http://www.w3.org/2000/svg">
<g clip-path="url(#clip0_270_55121)">
<rect width="16" height="12" fill="white"/>
<path fill-rule="evenodd" clip-rule="evenodd" d="M0 0H16V12H0V0Z" fill="#C51918"/>
<path fill-rule="evenodd" clip-rule="evenodd" d="M2 2H14V10H2V2Z" fill="#4564F9"/>
<path d="M2.5 2.5H13.5V9.5H2.5V2.5Z" stroke="#CBDAFF" stroke-opacity="0.1"/>
<mask id="mask0_270_55121" style="mask-type:luminance" maskUnits="userSpaceOnUse" x="2" y="2" width="12" height="8">
<path fill-rule="evenodd" clip-rule="evenodd" d="M2 2H14V10H2V2Z" fill="white"/>
<path d="M2.5 2.5H13.5V9.5H2.5V2.5Z" stroke="white"/>
</mask>
<g mask="url(#mask0_270_55121)">
<path fill-rule="evenodd" clip-rule="evenodd" d="M8 1.99995C8 1.99995 11 3.44772 11 5.85881C11 8.2699 8 9.99995 8 9.99995C8 9.99995 5 8.20211 5 5.85881C5 3.5155 8 1.99995 8 1.99995Z" fill="#CCE0E5"/>
<path d="M8 1.99995L8.3151 1.34701L7.99266 1.1914L7.67309 1.35284L8 1.99995ZM8 1.99995C8.3151 1.34701 8.31532 1.34712 8.31555 1.34723L8.31607 1.34748L8.31732 1.34809L8.32064 1.3497L8.33052 1.35457L8.36276 1.37078C8.38961 1.38446 8.42698 1.40388 8.47339 1.42894C8.5661 1.479 8.69543 1.55188 8.84924 1.64671C9.15534 1.83543 9.56619 2.11589 9.98031 2.48215C10.7866 3.19528 11.725 4.34221 11.725 5.85881C11.725 7.36186 10.8004 8.57545 10.0071 9.35173C9.59807 9.75194 9.19183 10.0675 8.88872 10.2829C8.73651 10.3911 8.60863 10.4752 8.51715 10.5332C8.47137 10.5622 8.43458 10.5848 8.40829 10.6007L8.37685 10.6194L8.36735 10.625L8.36422 10.6268L8.36307 10.6275L8.36259 10.6278C8.36238 10.6279 8.36219 10.628 8 9.99995M8 1.99995C7.67309 1.35284 7.67288 1.35295 7.67266 1.35306L7.67216 1.35331L7.67096 1.35392L7.66773 1.35557L7.65804 1.36056L7.62619 1.37728C7.5996 1.3914 7.5625 1.41148 7.51639 1.43735C7.42425 1.48903 7.29557 1.56416 7.14245 1.66144C6.83769 1.85507 6.42861 2.14127 6.01627 2.51061C5.21743 3.22616 4.275 4.3732 4.275 5.85881C4.275 7.33046 5.2032 8.54461 5.98997 9.32339C6.3974 9.72667 6.80209 10.0479 7.10399 10.2682C7.25557 10.3787 7.38287 10.465 7.47382 10.5246C7.51933 10.5544 7.55587 10.5776 7.58192 10.5939L7.613 10.6131L7.62232 10.6188L7.62537 10.6207L7.62648 10.6213L7.62694 10.6216C7.62713 10.6217 7.62732 10.6218 8 9.99995M8 9.99995L8.36219 10.628L7.99294 10.8409L7.62732 10.6218L8 9.99995Z" stroke="#C1C9F1" stroke-opacity="0.1482" stroke-width="1.45"/>
<path d="M8.20001 3.01839L8.54327 2.3798L8.19202 2.19099L7.84448 2.38655L8.20001 3.01839ZM8.20001 3.01839C8.54327 2.3798 8.54349 2.37992 8.54373 2.38004L8.54423 2.38031L8.54538 2.38093L8.54822 2.38248L8.5561 2.3868L8.58024 2.40032C8.59994 2.4115 8.62674 2.42702 8.65963 2.4468C8.72532 2.48631 8.81583 2.54314 8.92293 2.61669C9.13584 2.7629 9.4211 2.9798 9.70881 3.26323C10.2707 3.81675 10.925 4.7085 10.925 5.88381C10.925 7.04723 10.2819 7.98595 9.73423 8.58287C9.45202 8.89046 9.17186 9.1329 8.96247 9.29863C8.85723 9.38193 8.76842 9.447 8.7042 9.49236C8.67205 9.51506 8.64596 9.5329 8.62692 9.5457L8.60375 9.56111L8.59634 9.56595L8.59372 9.56765L8.59268 9.56831L8.59224 9.5686C8.59203 9.56873 8.59184 9.56886 8.20001 8.95886M8.20001 3.01839C7.84448 2.38655 7.84427 2.38667 7.84405 2.38679L7.84357 2.38706L7.84248 2.38768L7.83973 2.38924L7.83207 2.39363L7.80836 2.40749C7.78896 2.41897 7.76247 2.43495 7.7299 2.4553C7.66485 2.49594 7.57505 2.55436 7.4687 2.62962C7.25728 2.77925 6.97386 3.00009 6.68795 3.28534C6.13296 3.83906 5.47501 4.73069 5.47501 5.88381C5.47501 7.0246 6.12129 7.96368 6.663 8.56093C6.94367 8.87038 7.22226 9.1167 7.43033 9.28576C7.53491 9.37073 7.6231 9.43733 7.68674 9.48377C7.7186 9.50702 7.74442 9.52529 7.76319 9.53836L7.78597 9.55407L7.79319 9.55897L7.79572 9.56067L7.7967 9.56133L7.79713 9.56161C7.79732 9.56174 7.79751 9.56186 8.20001 8.95886M8.20001 8.95886L8.59184 9.56886L8.19238 9.82544L7.79751 9.56186L8.20001 8.95886Z" fill="#CCE0E5"/>
<path d="M8.20001 3.01839L8.54327 2.3798L8.19202 2.19099L7.84448 2.38655L8.20001 3.01839ZM8.20001 3.01839C8.54327 2.3798 8.54349 2.37992 8.54373 2.38004L8.54423 2.38031L8.54538 2.38093L8.54822 2.38248L8.5561 2.3868L8.58024 2.40032C8.59994 2.4115 8.62674 2.42702 8.65963 2.4468C8.72532 2.48631 8.81583 2.54314 8.92293 2.61669C9.13584 2.7629 9.4211 2.9798 9.70881 3.26323C10.2707 3.81675 10.925 4.7085 10.925 5.88381C10.925 7.04723 10.2819 7.98595 9.73423 8.58287C9.45202 8.89046 9.17186 9.1329 8.96247 9.29863C8.85723 9.38193 8.76842 9.447 8.7042 9.49236C8.67205 9.51506 8.64596 9.5329 8.62692 9.5457L8.60375 9.56111L8.59634 9.56595L8.59372 9.56765L8.59268 9.56831L8.59224 9.5686C8.59203 9.56873 8.59184 9.56886 8.20001 8.95886M8.20001 3.01839C7.84448 2.38655 7.84427 2.38667 7.84405 2.38679L7.84357 2.38706L7.84248 2.38768L7.83973 2.38924L7.83207 2.39363L7.80836 2.40749C7.78896 2.41897 7.76247 2.43495 7.7299 2.4553C7.66485 2.49594 7.57505 2.55436 7.4687 2.62962C7.25728 2.77925 6.97386 3.00009 6.68795 3.28534C6.13296 3.83906 5.47501 4.73069 5.47501 5.88381C5.47501 7.0246 6.12129 7.96368 6.663 8.56093C6.94367 8.87038 7.22226 9.1167 7.43033 9.28576C7.53491 9.37073 7.6231 9.43733 7.68674 9.48377C7.7186 9.50702 7.74442 9.52529 7.76319 9.53836L7.78597 9.55407L7.79319 9.55897L7.79572 9.56067L7.7967 9.56133L7.79713 9.56161C7.79732 9.56174 7.79751 9.56186 8.20001 8.95886M8.20001 8.95886L8.59184 9.56886L8.19238 9.82544L7.79751 9.56186L8.20001 8.95886Z" stroke="#C1C9F1" stroke-opacity="0.748217" stroke-width="1.45"/>
<path d="M8.20001 3.01839L8.54327 2.3798L8.19202 2.19099L7.84448 2.38655L8.20001 3.01839ZM8.20001 3.01839C8.54327 2.3798 8.54349 2.37992 8.54373 2.38004L8.54423 2.38031L8.54538 2.38093L8.54822 2.38248L8.5561 2.3868L8.58024 2.40032C8.59994 2.4115 8.62674 2.42702 8.65963 2.4468C8.72532 2.48631 8.81583 2.54314 8.92293 2.61669C9.13584 2.7629 9.4211 2.9798 9.70881 3.26323C10.2707 3.81675 10.925 4.7085 10.925 5.88381C10.925 7.04723 10.2819 7.98595 9.73423 8.58287C9.45202 8.89046 9.17186 9.1329 8.96247 9.29863C8.85723 9.38193 8.76842 9.447 8.7042 9.49236C8.67205 9.51506 8.64596 9.5329 8.62692 9.5457L8.60375 9.56111L8.59634 9.56595L8.59372 9.56765L8.59268 9.56831L8.59224 9.5686C8.59203 9.56873 8.59184 9.56886 8.20001 8.95886M8.20001 3.01839C7.84448 2.38655 7.84427 2.38667 7.84405 2.38679L7.84357 2.38706L7.84248 2.38768L7.83973 2.38924L7.83207 2.39363L7.80836 2.40749C7.78896 2.41897 7.76247 2.43495 7.7299 2.4553C7.66485 2.49594 7.57505 2.55436 7.4687 2.62962C7.25728 2.77925 6.97386 3.00009 6.68795 3.28534C6.13296 3.83906 5.47501 4.73069 5.47501 5.88381C5.47501 7.0246 6.12129 7.96368 6.663 8.56093C6.94367 8.87038 7.22226 9.1167 7.43033 9.28576C7.53491 9.37073 7.6231 9.43733 7.68674 9.48377C7.7186 9.50702 7.74442 9.52529 7.76319 9.53836L7.78597 9.55407L7.79319 9.55897L7.79572 9.56067L7.7967 9.56133L7.79713 9.56161C7.79732 9.56174 7.79751 9.56186 8.20001 8.95886M8.20001 8.95886L8.59184 9.56886L8.19238 9.82544L7.79751 9.56186L8.20001 8.95886Z" stroke="#C51918" stroke-width="1.45"/>
<mask id="mask1_270_55121" style="mask-type:luminance" maskUnits="userSpaceOnUse" x="6" y="3" width="5" height="6">
<path d="M8.6658 7.60259C8.50626 7.77647 8.34563 7.92527 8.20601 8.04396C8.06399 7.92081 7.89993 7.76638 7.73702 7.58677C7.27874 7.08151 6.92501 6.48308 6.92501 5.88381C6.92501 5.2969 7.26707 4.75581 7.71207 4.31183C7.88498 4.13931 8.05951 3.99573 8.20643 3.88589C8.35094 3.99139 8.52186 4.12935 8.69122 4.29619C9.12933 4.72778 9.47501 5.26875 9.47501 5.88381C9.47501 6.51078 9.11812 7.10959 8.6658 7.60259Z" fill="white"/>
<path d="M8.6658 7.60259C8.50626 7.77647 8.34563 7.92527 8.20601 8.04396C8.06399 7.92081 7.89993 7.76638 7.73702 7.58677C7.27874 7.08151 6.92501 6.48308 6.92501 5.88381C6.92501 5.2969 7.26707 4.75581 7.71207 4.31183C7.88498 4.13931 8.05951 3.99573 8.20643 3.88589C8.35094 3.99139 8.52186 4.12935 8.69122 4.29619C9.12933 4.72778 9.47501 5.26875 9.47501 5.88381C9.47501 6.51078 9.11812 7.10959 8.6658 7.60259Z" stroke="white" stroke-width="1.45"/>
</mask>
<g mask="url(#mask1_270_55121)">
<rect x="6.46667" y="7" width="3.73333" height="0.75" fill="#91CBCB"/>
<path fill-rule="evenodd" clip-rule="evenodd" d="M6.8009 7.59896C6.8009 7.59896 9.44793 7.59991 9.69121 7.50856C9.9345 7.41722 9.23448 9.26234 8.34006 9.26234C7.44564 9.26234 6.8009 7.59896 6.8009 7.59896Z" fill="#FDF9A1"/>
<path d="M9.29681 7.37755L8.82129 7.74346C8.07185 6.76952 7.75748 5.76199 7.89166 4.73372L8.48662 4.81135C8.37423 5.67262 8.6398 6.52374 9.29681 7.37755Z" fill="#A68861"/>
<path fill-rule="evenodd" clip-rule="evenodd" d="M8.19684 4.81836L7.74318 5.34994C7.72616 5.36988 7.69382 5.3535 7.69983 5.32798L7.85588 4.6652H7.14622C7.11914 4.6652 7.11138 4.62817 7.13618 4.6173L7.74258 4.35145L7.31217 3.78401C7.29693 3.76391 7.31767 3.73644 7.34117 3.74561L8.018 4.00945L8.17251 3.38774C8.1788 3.36243 8.21479 3.36245 8.22105 3.38776L8.37475 4.00945L9.04571 3.74821C9.06971 3.73887 9.09046 3.76753 9.07408 3.78741L8.60927 4.35145L9.25063 4.6171C9.2759 4.62757 9.26842 4.6652 9.24106 4.6652H8.60927L8.70542 5.34327C8.70893 5.36805 8.6779 5.38205 8.66165 5.36301L8.19684 4.81836Z" fill="#239E46"/>
<path fill-rule="evenodd" clip-rule="evenodd" d="M7.79999 6.5H10.2V7.025H7.79999V6.5Z" fill="#239E46"/>
</g>
</g>
</g>
<defs>
<clipPath id="clip0_270_55121">
<rect width="16" height="12" fill="white"/>
</clipPath>
</defs>
</svg>

<svg width="16" height="12" fill="none" xmlns="http://www.w3.org/2000/svg">
  <mask id="a" maskUnits="userSpaceOnUse" x="0" y="0" width="16" height="12">
    <path fill="#fff" d="M0 0h16v12H0z"/>
  </mask>
  <g mask="url(#a)">
    <path fill-rule="evenodd" clip-rule="evenodd" d="M0 0h16v12H0V0z" fill="#C51918"/>
    <path fill-rule="evenodd" clip-rule="evenodd" d="M2 2h12v8H2V2z" fill="#4564F9"/>
    <path d="M2.5 2.5h11v7h-11v-7z" stroke="#CBDAFF" stroke-opacity=".1"/>
    <mask id="b" maskUnits="userSpaceOnUse" x="2" y="2" width="12" height="8">
      <path fill-rule="evenodd" clip-rule="evenodd" d="M2 2h12v8H2V2z" fill="#fff"/>
      <path d="M2.5 2.5h11v7h-11v-7z" stroke="#fff"/>
    </mask>
    <g mask="url(#b)">
      <path fill-rule="evenodd" clip-rule="evenodd" d="M8 2s3 1.448 3 3.859C11 8.269 8 10 8 10S5 8.202 5 5.859C5 3.515 8 2 8 2z" fill="#CCE0E5"/>
      <path d="M8 2l.315-.653-.322-.156-.32.162L8 2zm0 0l.316-.653h0l.001.001.004.002.01.005.032.016a7.63 7.63 0 01.486.276 8.26 8.26 0 011.131.835c.807.713 1.745 1.86 1.745 3.377 0 1.503-.925 2.716-1.718 3.493A9.421 9.421 0 018.408 10.6l-.031.018-.01.006-.003.002h0-.001L8 10m0-8l-.327-.647h0-.002l-.003.003-.01.005-.032.016a8.018 8.018 0 00-.484.284 8.79 8.79 0 00-1.126.85c-.799.715-1.741 1.862-1.741 3.348 0 1.471.928 2.686 1.715 3.464a9.886 9.886 0 001.592 1.27l.031.02.01.006.002.002h.001L8 10m0 0l.362.628-.37.213-.365-.22L8 10z" stroke="#C1C9F1" stroke-opacity=".148" stroke-width="1.45"/>
      <path d="M8.2 3.018l.343-.638-.351-.189-.348.196.356.631zm0 0l.344-.638h.001l.003.002.008.005.024.013.08.047a5.85 5.85 0 011.05.816c.56.554 1.215 1.446 1.215 2.62 0 1.164-.643 2.103-1.19 2.7a6.71 6.71 0 01-1.108.963l-.023.015-.008.005-.002.002h-.001l-.393-.61m0-5.94l-.356-.631h-.002l-.002.002-.008.005-.024.013-.078.048a6.135 6.135 0 00-1.042.83c-.555.554-1.213 1.446-1.213 2.599 0 1.14.646 2.08 1.188 2.677a7.044 7.044 0 001.1.977l.023.016.007.005.003.002h.001L8.2 8.96m0 0l.392.61-.4.256-.394-.263.402-.603z" fill="#CCE0E5"/>
      <path d="M8.2 3.018l.343-.638-.351-.189-.348.196.356.631zm0 0l.344-.638h.001l.003.002.008.005.024.013.08.047a5.85 5.85 0 011.05.816c.56.554 1.215 1.446 1.215 2.62 0 1.164-.643 2.103-1.19 2.7a6.71 6.71 0 01-1.108.963l-.023.015-.008.005-.002.002h-.001 0l-.393-.61m0-5.94l-.356-.631h0-.002l-.002.002-.008.005-.024.013-.078.048a6.135 6.135 0 00-1.042.83c-.555.554-1.213 1.446-1.213 2.599 0 1.14.646 2.08 1.188 2.677a7.044 7.044 0 001.1.977l.023.016.007.005.003.002h.001L8.2 8.96m0 0l.392.61-.4.256-.394-.263.402-.603z" stroke="#C1C9F1" stroke-opacity=".748" stroke-width="1.45"/>
      <path d="M8.2 3.018l.343-.638-.351-.189-.348.196.356.631zm0 0l.344-.638h.001l.003.002.008.005.024.013.08.047a5.85 5.85 0 011.05.816c.56.554 1.215 1.446 1.215 2.62 0 1.164-.643 2.103-1.19 2.7a6.71 6.71 0 01-1.108.963l-.023.015-.008.005-.002.002h-.001 0l-.393-.61m0-5.94l-.356-.631h0-.002l-.002.002-.008.005-.024.013-.078.048a6.135 6.135 0 00-1.042.83c-.555.554-1.213 1.446-1.213 2.599 0 1.14.646 2.08 1.188 2.677a7.044 7.044 0 001.1.977l.023.016.007.005.003.002h.001L8.2 8.96m0 0l.392.61-.4.256-.394-.263.402-.603z" stroke="#C51918" stroke-width="1.45"/>
      <mask id="c" maskUnits="userSpaceOnUse" x="6" y="3" width="5" height="6">
        <path d="M8.666 7.603a5.37 5.37 0 01-.46.441 5.516 5.516 0 01-.469-.457c-.458-.505-.812-1.104-.812-1.703 0-.587.342-1.128.787-1.572.173-.173.348-.316.494-.426.145.105.316.243.485.41.438.432.784.973.784 1.588 0 .627-.357 1.226-.81 1.719z" fill="#fff"/>
        <path d="M8.666 7.603a5.37 5.37 0 01-.46.441 5.516 5.516 0 01-.469-.457c-.458-.505-.812-1.104-.812-1.703 0-.587.342-1.128.787-1.572.173-.173.348-.316.494-.426.145.105.316.243.485.41.438.432.784.973.784 1.588 0 .627-.357 1.226-.81 1.719z" stroke="#fff" stroke-width="1.45"/>
      </mask>
      <g mask="url(#c)">
        <path fill="#91CBCB" d="M6.467 7H10.2v.75H6.467z"/>
        <path fill-rule="evenodd" clip-rule="evenodd" d="M6.8 7.599s2.648 0 2.891-.09c.243-.092-.457 1.753-1.35 1.753C7.445 9.262 6.8 7.6 6.8 7.6z" fill="#FDF9A1"/>
        <path d="M9.297 7.378l-.476.365c-.75-.973-1.064-1.981-.93-3.01l.596.078c-.113.862.153 1.713.81 2.567z" fill="#A68861"/>
        <path fill-rule="evenodd" clip-rule="evenodd" d="M8.197 4.818l-.454.532c-.017.02-.05.004-.043-.022l.156-.663h-.71c-.027 0-.035-.037-.01-.048l.607-.266-.43-.567c-.016-.02.005-.048.028-.038l.677.263.155-.621a.025.025 0 01.048 0l.154.621.67-.26c.025-.01.045.019.03.038l-.466.564.642.266c.025.01.017.048-.01.048H8.61l.096.678c.004.025-.027.039-.043.02l-.465-.545zM7.8 6.5h2.4v.525H7.8V6.5z" fill="#239E46"/>
      </g>
    </g>
  </g>
</svg>
